X:0620
T:Athole house.
M:C|
L:1/8
Q:1/2=104
I: :: :|
Z:Jack Campin * www.campin.me.uk * 2009
K:G
g|dGBG        dG (e/d/c/B/)|dGBG          FA2g |dGBG dBgd|(e/d/c/B/) dD EGG:|
d|g2 b/a/g/f/ gdBg         |Fd (e/d/c/B/) cAAd |gbag dgBd| egfa         dggd|
  gdbg        gdc'a        |bgdg          faac'|bgdg ecAc| BGdD         DGG:|

